X:1
T:Title
%%score ( 1 2 )
L:1/8
M:4/4
I:linebreak $
K:D
V:1 treble nm="Voice" snm="Voice"
V:2 treble 
L:1/4
V:1
 F2 [Fe]4 D2 | dA fA eA fA | gA fA ed [Dc]2 | ed cB x5 | dA fA eA fA |$ gf ed cA Bc | %6
 d2 f2 d2 [Dc]2 :: eA AA fA AA | gA fA eA Af | gA fA ed [Dc]2 |$ ed cB A2 [Gg]2 | df ff [Fe]2 g2 | %12
 fg3/2 gf g2 e2 | d2 f2 d2 :| %14
V:2
 x [ABg] x2 | x4 | x4 | x3/2 A G F | x4 |$ x4 | x4 :: x4 | x4 | x4 |$ x4 | x4 | x17/4 | x3 :| %14
